Adwaita++-Light/panel/24/webtorrent-desktop-panel.svg

<svg height="24" width="24" xmlns="http://www.w3.org/2000/svg">
  <path d="m12.042968 4.0005166a1.7755 1.8191263 0 0 0 -.93164.2441301l-5.222656 3.0897188a1.7755 1.8191263 0 0 0 -.888672 1.5761081v6.1794384a1.7755 1.8191263 0 0 0 .888672 1.576108l5.222656 3.089718a1.7755 1.8191263 0 0 0 1.777344 0l5.222656-3.089718a1.7755 1.8191263 0 0 0 .888672-1.576108v-6.1794384a1.7755 1.8191263 0 0 0 -.888672-1.5761081l-5.222656-3.0897188a1.7755 1.8191263 0 0 0 -.845704-.2421772zm-2.158203 3.9998379c.835627 0 1.58821.4262017 2.115235 1.0722213.526889-.6460196 1.27963-1.0722213 2.115233-1.0722213 1.593357 0 2.884767 1.4699323 2.884767 3.2830705 0 .487156-.08251.954497-.208984 1.40424-.06961.247482.989492-2.218017-.226563.624975s-4.564453 4.68731-4.564453 4.68731-3.348376-1.844269-4.564453-4.68731c-.106402-.22236-.226563-.624975-.226563-.624975-.132459-.447675-.208984-.917084-.208984-1.40424 0-1.8131382 1.291409-3.2830705 2.884765-3.2830705z" fill="#444"/>
</svg>

<svg xmlns="http://www.w3.org/2000/svg" width="24" height="24" version="1.1">
 <defs>
  <style id="current-color-scheme" type="text/css">
   .ColorScheme-Text { color:#444444; } .ColorScheme-Highlight { color:#4285f4; }
  </style>
 </defs>
 <path style="fill:currentColor" class="ColorScheme-Text" d="m 12.042968,4.0005166 a 1.7755,1.8191263 0 0 0 -0.93164,0.2441301 L 5.888672,7.3343655 A 1.7755,1.8191263 0 0 0 5,8.9104736 v 6.1794384 a 1.7755,1.8191263 0 0 0 0.888672,1.576108 l 5.222656,3.089718 a 1.7755,1.8191263 0 0 0 1.777344,0 L 18.111328,16.66602 A 1.7755,1.8191263 0 0 0 19,15.089912 V 8.9104736 A 1.7755,1.8191263 0 0 0 18.111328,7.3343655 L 12.888672,4.2446467 A 1.7755,1.8191263 0 0 0 12.042968,4.0024695 Z M 9.884765,8.0003545 c 0.835627,0 1.58821,0.4262017 2.115235,1.0722213 0.526889,-0.6460196 1.27963,-1.0722213 2.115233,-1.0722213 1.593357,0 2.884767,1.4699323 2.884767,3.2830705 0,0.487156 -0.08251,0.954497 -0.208984,1.40424 -0.06961,0.247482 0.989492,-2.218017 -0.226563,0.624975 C 15.348398,16.155632 12,17.99995 12,17.99995 c 0,0 -3.348376,-1.844269 -4.564453,-4.68731 C 7.329145,13.09028 7.208984,12.687665 7.208984,12.687665 7.076525,12.23999 7,11.770581 7,11.283425 7,9.4702868 8.291409,8.0003545 9.884765,8.0003545 Z"/>
</svg>
